X:1
T:Title
%%score { ( 1 2 5 ) | ( 3 4 ) }
L:1/8
Q:1/4=150
M:6/4
K:Db
V:1 treble nm="Grand Piano"
V:2 treble 
V:5 treble 
V:3 bass 
V:4 bass 
V:1
 z2 A2 A2 z2 F2 B2 | z2 F2 F2 z2 F2 F2 | z2 F2 F2 z2 F2 F2 | G6 G6 | z2 A2 A2 z2 G2 G2 | %5
 z2 A2 A2 z2 F2 F2 | e2- [Ae-]2 [Ae]2 z2 =G2 G2 | [EGAce]12[K:bass] | z2 A2 A2 z2 F2 B2 | %9
 z2 F2 F2 z2 F2 F2 | z2 F2 F2 z2 F2 F2 | G12 | z2 E2 E2 z2 =G2 G2 | z2 A2 A2 z2 A2 A2 | %14
 z2 A2 A2 z2 [E=G]2 [EG]2 | [CEA]12[K:bass] | [Fd]6 [Fd]4 [Fd]2 | [Fc]12 | [=Ae]6 [Ae]4 [Fce]2 | %19
 B6 c6 | [GBd]6 [DAc]4 [DGB]2 | [DFA]6 [A,DF]6 | z6 [=Ge]6 | e12 | z12 | [FA]6 [Fd]6 | %26
 [EAc]4 [EAc]2 A2- [DAd]2 [Ae]2 | [Af]12 | [Geg]6 [GB]4 [Geg]2 | [Af]6 .[FA]6 | [=Ge]6 z6 | d12 |] %32
V:2
 [Dd]6 .[Cc]6 | [A,A]6 [=A,=A]6 | [B,B]6 A6 | z2 E2 E2 z2 E2 E2 | [Cc]6 A6 | [Dd]6 [B,B]6 | %6
 .E6 B6 | z2[K:bass] B,2 A,2 G,2 F,2 E,2 | [Dd]6 .[Cc]6 | [A,A]6 [=A,=A]6 | [B,B]6 A6 | %11
 z2 E2 E2 E2 E2 E2 | [=G,=G]6 [B,B]6 | [Ee]6 [Dd]6 | [Cc]6 [B,B]6 | %15
 A,2[K:bass] B,2 F,2 G,2 E,2 A,2 | x12 | z2 =A,2 A,2 A,6 | x12 | [Fd]12 | x12 | x12 | %22
 [=G,DE]6 z4 D2 | z2 .B,4 z6 | [Fd]4 [Fd]2 [Gc]4 [GB]2 | x12 | z6 .[Ec]6 | x12 | x12 | x12 | %30
 z2 D2 D2 e4 A2 | [DF]4 G2 F6 |] %32
V:3
 z2[K:treble] F2 F2[K:bass] z4 [B,F]2 | z2 D2 D2 z2 E2 E2 | z2 =D2 D2 z2 [B,D]2 [B,D]2 | %3
 z2 [G,B,]2 [G,B,]2 [G,B,E]2 [G,B,]2 [G,B,]2 | z2[K:treble] [EG]2 [EG]2[K:bass] z2 [CE]2 [CE]2 | %5
 z2[K:treble] F2 F2[K:bass] z2 D2 D2 | z2 E2 E2 z2 E2 E2 | [C,C]2 B,,2 A,,2 G,,2 F,,2 E,,2 | %8
 z2[K:treble] F2 F2[K:bass] z4 [B,F]2 | z2 D2 D2 z2 E2 E2 | z2 =D2 D2 z2 [B,D]2 [B,D]2 | %11
 z2 [G,B,]2 [G,B,]2 [G,B,]2 [G,B,]2 [G,B,]2 | z2 B,2 B,2 z2 E2 E2 | [C,,C,]6 z2[K:treble] F2 F2 | %14
 z2 E2 E2 z2 D2 D2 | A,,2 B,,2 F,,2 G,,2 E,,2 A,,2 | [D,A,]6 [D,A,]6 | [F,=A,]2 F,2 F,2 F,6 | %18
 [F,C]6 C2- [=G,C]2 =A,2 | B,2 B,2 B,2 A,6 | G,6 G,4 G,2 | D,6 D,6 | E,6 .[E,B,]6 | %23
 [CG]6- [G,C-G-]2 [F,C-G-]2 [E,CG]2 | D,4 [D,A,]2 [D,B,]4 [D,C]2 | z6 .A,6 | %26
 A,4 A,2 G,2 F,2 [E,C]2 | [=D,_C]12 | [E,B,]6 [E,E]4 [E,B,]2 | [A,DF]6 .[A,D]6 | %30
 [E,D]2 E,2 E,2[K:treble] [A,CG]4 [A,CG]2 | z4 B,2 A,6 |] %32
V:4
 [D,,D,]6[K:treble][K:bass] [A,,,A,,]6 | [D,,D,]6 [C,,C,]6 | [B,,,B,,]6 [=D,,=D,]6 | [E,,E,]12 | %4
 [A,,A,]6[K:treble][K:bass] [G,,G,]6 | [F,,F,]6[K:treble][K:bass] [D,,D,]6 | [C,,C,]6 [D,B,D]6 | %7
 x12 | [D,,D,]6[K:treble][K:bass] [A,,,A,,]6 | [D,,D,]6 [C,,C,]6 | [B,,,B,,]6 [=D,,=D,]6 | %11
 [E,,E,]12 | [E,,E,]6 [D,,D,]6 | z6 [D,,D,]6[K:treble] | [E,,E,]6 [E,,E,]6 | x12 | x12 | x12 | %18
 z6 .F,6 | x12 | x12 | x12 | x12 | .A,6 z6 | x12 | [D,D]6 D,4- [D,D]2 | x12 | x12 | x12 | x12 | %30
 x6[K:treble] x6 | D,12 |] %32
V:5
 x12 | x12 | x12 | x12 | x12 | x12 | x12 | x2[K:bass] x10 | x12 | x12 | x12 | x12 | x12 | x12 | %14
 x12 | x2[K:bass] x10 | x12 | x12 | x12 | x12 | x12 | x12 | x12 | z4 A,2- A,6- | A,4 z2 z6 | x12 | %26
 x12 | x12 | x12 | x12 | x12 | x12 |] %32

